X:1
T:Purcell: Z 342/3 - A prince of glorious race descended
%%score 1 2
L:1/8
M:4/4
K:C
V:1 treble nm="Harp" snm="Hrp."
V:2 bass nm="Harp" snm="Hrp."
V:1
 z8 | z8 | z8 | z8 | z8 | z8 | z8 | z2 z4 E2 | A4 z2 A2 | e4 z2 dc | defe de/d/ cd/B/ | %11
 cded c2 B2 | c2 A4 dc | B2 G2 G2 B2 | (B/c/ d3) z2 BA | ^G2 E2 G2 B2 | c3 d cd cd/c/ | %17
 B3 c Bc Bc/B/ | ABAB c2 BA | B2 E2 z2 E2 | A4 z2 A2 | e4 z2 dc | defe de/d/ cd/B/ | cded c2 B2 | %24
 c2 A4 dc | B2 G2 G2 B2 | (B/c/ d3) z2 BA | ^G2 E2 G2 B2 | c3 d cd cd/c/ | B3 c Bc Bc/B/ | %30
 ABAB c2 BA | B2 E2 z2 B2 | c3 (B cA)Bc | d3 (e de)fe | e4 z2 e2 | f3 (e f)def | g3 (f edcB) | %37
 A2 f2 d3 g | (ed c2) z2 fe | d3 c Bc d2 | (cB A2) z2 A2 | (BcB)c d2 E2 | (ABA)B (c2 BA) | %43
 ^G2 e2 dcBA | A4 z2 A2 | (BcB)c d2 E2 | (ABA)B (c2 BA) | ^G2 e2 dcBA | A8 |] %49
V:2
 z2 A,,2 C,2 F,2 | z2 G,,2 B,,2 E,2 | z2 F,,2 A,,2 D,2 | z2 E,,2 B,,2 E,2 | z2 A,,2 C,2 F,2 | %5
 z2 G,,2 B,,2 E,2 | z2 F,,2 A,,2 D,2 | z2 E,,2 B,,2 E,2 | z2 A,,2 C,2 F,2 | z2 G,,2 B,,2 E,2 | %10
 z2 F,,2 A,,2 D,2 | z2 E,,2 B,,2 E,2 | z2 A,,2 C,2 F,2 | z2 G,,2 B,,2 E,2 | z2 F,,2 A,,2 D,2 | %15
 z2 E,,2 B,,2 E,2 | z2 A,,2 C,2 F,2 | z2 G,,2 B,,2 E,2 | z2 F,,2 A,,2 D,2 | z2 E,,2 B,,2 E,2 | %20
 z2 A,,2 C,2 F,2 | z2 G,,2 B,,2 E,2 | z2 F,,2 A,,2 D,2 | z2 E,,2 B,,2 E,2 | z2 A,,2 C,2 F,2 | %25
 z2 G,,2 B,,2 E,2 | z2 F,,2 A,,2 D,2 | z2 E,,2 B,,2 E,2 | z2 A,,2 C,2 F,2 | z2 G,,2 B,,2 E,2 | %30
 z2 F,,2 A,,2 D,2 | z2 E,,2 B,,2 E,2 | z2 A,,2 C,2 F,2 | z2 B,,2 D,2 G,2 | z2 C,2 E,2 A,2 | %35
 z2 D,2 F,2 B,2 | z2 E,2 G,2 C2 | z2 F,2 G,2 G,,2 | z2 C,2 E,2 A,2 | z2 B,,2 D,2 G,2 | %40
 z2 A,,2 C,2 F,2 | z2 G,,2 B,,2 E,2 | z2 F,,2 A,,2 D,2 | z2 E,,2 B,,2 E,2 | z2 A,,2 C,2 F,2 | %45
 z2 G,,2 B,,2 E,2 | z2 F,,2 A,,2 D,2 | z2 E,,2 B,,2 E,2 | A,,8 |] %49

